include/LD/assets/icons/action/new_custom32.svg

<?xml version="1.0"?><svg xmlns="http://www.w3.org/2000/svg" width="52" height="52" viewBox="0 0 52 52"><path fill="#fff" d="m48.8 14.2l-18.7 10.7c-0.4 0.2-0.8 0.3-1.2 0.3-0.9 0-1.8-0.5-2.2-1.4-0.6-1.1 0-2.6 1.1-3.2l6.2-3.5v-6.1c0-0.6-0.6-1-1.2-0.7l-22.8 13c-0.4 0.2-0.8 0.3-1.2 0.3-0.8 0-1.7-0.4-2.1-1.2-0.6-1.1-0.2-2.6 0.9-3.3l3.9-2.2v-13.3c0.1-0.9-0.6-1.6-1.5-1.6h-6.4c-0.9 0-1.6 0.7-1.6 1.6v41.6c0 2.6 2.2 4.8 4.8 4.8h13.6c0.9 0 1.6-0.7 1.6-1.6v-5.6c0-0.9 0.7-1.6 1.6-1.6h4.8c0.9 0 1.6 0.7 1.6 1.6v5.6c0 0.9 0.7 1.6 1.6 1.6h13.6c2.6 0 4.8-2.2 4.8-4.8v-30.2c0-0.7-0.6-1.1-1.2-0.8z m-34.8 22.2c0 0.9-0.7 1.6-1.6 1.6h-1.6c-0.9 0-1.6-0.7-1.6-1.6v-4.8c0-0.9 0.7-1.6 1.6-1.6h1.6c0.9 0 1.6 0.7 1.6 1.6v4.8z m9.6 0c0 0.9-0.7 1.6-1.6 1.6h-1.6c-0.9 0-1.6-0.7-1.6-1.6v-4.8c0-0.9 0.7-1.6 1.6-1.6h1.6c0.9 0 1.6 0.7 1.6 1.6v4.8z m9.6 0c0 0.9-0.7 1.6-1.6 1.6h-1.6c-0.9 0-1.6-0.7-1.6-1.6v-4.8c0-0.9 0.7-1.6 1.6-1.6h1.6c0.9 0 1.6 0.7 1.6 1.6v4.8z m9.6 0c0 0.9-0.7 1.6-1.6 1.6h-1.6c-0.9 0-1.6-0.7-1.6-1.6v-4.8c0-0.9 0.7-1.6 1.6-1.6h1.6c0.9 0 1.6 0.7 1.6 1.6v4.8z"></path></svg>

<svg xmlns="http://www.w3.org/2000/svg" x="0px" y="0px"
	 width="52px" height="52px" viewBox="0 0 52 52" enable-background="new 0 0 52 52" xml:space="preserve">
<path fill="#FFFFFF" d="M48.8,14.2L30.1,24.9c-0.4,0.2-0.8,0.3-1.2,0.3c-0.9,0-1.8-0.5-2.2-1.4c-0.6-1.1,0-2.6,1.1-3.2l6.2-3.5V11
	c0-0.6-0.6-1-1.2-0.7l-22.8,13c-0.4,0.2-0.8,0.3-1.2,0.3c-0.8,0-1.7-0.4-2.1-1.2c-0.6-1.1-0.2-2.6,0.9-3.3l3.9-2.2V3.6
	C11.6,2.7,10.9,2,10,2H3.6C2.7,2,2,2.7,2,3.6v41.6C2,47.8,4.2,50,6.8,50h4.8h8.8c0.9,0,1.6-0.7,1.6-1.6v-5.6c0-0.9,0.7-1.6,1.6-1.6
	h4.8c0.9,0,1.6,0.7,1.6,1.6v5.6c0,0.9,0.7,1.6,1.6,1.6h13.6c2.6,0,4.8-2.2,4.8-4.8V18.6V15C50,14.3,49.4,13.9,48.8,14.2z M14,36.4
	c0,0.9-0.7,1.6-1.6,1.6h-1.6c-0.9,0-1.6-0.7-1.6-1.6v-4.8c0-0.9,0.7-1.6,1.6-1.6h1.6c0.9,0,1.6,0.7,1.6,1.6V36.4z M23.6,36.4
	c0,0.9-0.7,1.6-1.6,1.6h-1.6c-0.9,0-1.6-0.7-1.6-1.6v-4.8c0-0.9,0.7-1.6,1.6-1.6H22c0.9,0,1.6,0.7,1.6,1.6V36.4z M33.2,36.4
	c0,0.9-0.7,1.6-1.6,1.6H30c-0.9,0-1.6-0.7-1.6-1.6v-4.8c0-0.9,0.7-1.6,1.6-1.6h1.6c0.9,0,1.6,0.7,1.6,1.6V36.4z M42.8,36.4
	c0,0.9-0.7,1.6-1.6,1.6h-1.6c-0.9,0-1.6-0.7-1.6-1.6v-4.8c0-0.9,0.7-1.6,1.6-1.6h1.6c0.9,0,1.6,0.7,1.6,1.6V36.4z"/>
</svg>
